assets/remote-control-overview.svg

<?xml version="1.0" encoding="UTF-8"?>
<!DOCTYPE svg PUBLIC "-//W3C//DTD SVG 1.1//EN" "http://www.w3.org/Graphics/SVG/1.1/DTD/svg11.dtd">
<svg xmlns="http://www.w3.org/2000/svg" width="686" height="176" viewBox="-0.5 -0.5 686 176"><path fill="#fff" stroke="#000" pointer-events="none" d="M0 170V0h60v170z"/><switch transform="rotate(-90 75.5 52)"><foreignObject pointer-events="all" width="86" height="12" requiredFeatures="http://www.w3.org/TR/SVG11/feature#Extensibility" overflow="visible"><div xmlns="http://www.w3.org/1999/xhtml" style="line-height:1.2;vertical-align:top;width:88px;white-space:nowrap;overflow-wrap:normal;text-align:center" display="inline-block" font-size="12" font-family="Helvetica" color="#000"><div xmlns="http://www.w3.org/1999/xhtml" style="text-align:inherit;white-space:normal" display="inline-block" text-decoration="inherit">Air Conditionner</div></div></foreignObject><text x="43" y="12" text-anchor="middle" font-size="12" font-family="Helvetica">Air Conditionner</text></switch><path d="M135 45H98v40H66.37" fill="none" stroke="#000" stroke-miterlimit="10" pointer-events="none"/><path d="M61.12 85l7-3.5-1.75 3.5 1.75 3.5z" stroke="#000" stroke-miterlimit="10" pointer-events="none"/><path fill="#fff" stroke="#000" pointer-events="none" d="M135 5h120v80H135z"/><switch transform="translate(136.5 31.5)"><foreignObject pointer-events="all" width="116" height="26" requiredFeatures="http://www.w3.org/TR/SVG11/feature#Extensibility" overflow="visible"><div xmlns="http://www.w3.org/1999/xhtml" style="line-height:1.2;vertical-align:top;width:116px;white-space:nowrap;overflow-wrap:normal;text-align:center" display="inline-block" font-size="12" font-family="Helvetica" color="#000"><div xmlns="http://www.w3.org/1999/xhtml" style="text-align:inherit;white-space:normal" display="inline-block" text-decoration="inherit">IR Transmission module</div></div></foreignObject><text x="58" y="19" text-anchor="middle" font-size="12" font-family="Helvetica">IR Transmission module</text></switch><path d="M255 135h45v-31h36.63" fill="none" stroke="#000" stroke-miterlimit="10" pointer-events="none"/><path d="M341.88 104l-7 3.5 1.75-3.5-1.75-3.5z" stroke="#000" stroke-miterlimit="10" pointer-events="none"/><path fill="#fff" stroke="#000" pointer-events="none" d="M135 95h120v80H135z"/><switch transform="translate(141.5 128.5)"><foreignObject pointer-events="all" width="106" height="12" requiredFeatures="http://www.w3.org/TR/SVG11/feature#Extensibility" overflow="visible"><div xmlns="http://www.w3.org/1999/xhtml" style="line-height:1.2;vertical-align:top;width:108px;white-space:nowrap;overflow-wrap:normal;text-align:center" display="inline-block" font-size="12" font-family="Helvetica" color="#000"><div xmlns="http://www.w3.org/1999/xhtml" style="text-align:inherit;white-space:normal" display="inline-block" text-decoration="inherit">Temperature sensor</div></div></foreignObject><text x="53" y="12" text-anchor="middle" font-size="12" font-family="Helvetica">Temperature sensor</text></switch><path d="M345 80h-45V45h-38.63" fill="none" stroke="#000" stroke-miterlimit="10" pointer-events="none"/><path d="M256.12 45l7-3.5-1.75 3.5 1.75 3.5z" stroke="#000" stroke-miterlimit="10" pointer-events="none"/><path d="M471.37 95h106.26" fill="none" stroke="#000" stroke-miterlimit="10" pointer-events="none"/><path d="M466.12 95l7-3.5-1.75 3.5 1.75 3.5zM582.88 95l-7 3.5 1.75-3.5-1.75-3.5z" stroke="#000" stroke-miterlimit="10" pointer-events="none"/><path fill="#fff" stroke="#000" pointer-events="none" d="M345 65h120v60H345z"/><switch transform="translate(369.5 88.5)"><foreignObject pointer-events="all" width="70" height="12" requiredFeatures="http://www.w3.org/TR/SVG11/feature#Extensibility" overflow="visible"><div xmlns="http://www.w3.org/1999/xhtml" style="line-height:1.2;vertical-align:top;width:70px;white-space:nowrap;overflow-wrap:normal;text-align:center" display="inline-block" font-size="12" font-family="Helvetica" color="#000"><div xmlns="http://www.w3.org/1999/xhtml" style="text-align:inherit;white-space:normal" display="inline-block" text-decoration="inherit">Raspberry Pi</div></div></foreignObject><text x="35" y="12" text-anchor="middle" font-size="12" font-family="Helvetica">Raspberry Pi</text></switch><path d="M595 71c-24 0-30 20-10.8 24-19.2 8.8 2.4 28 18 20 10.8 16 46.8 16 58.8 0 24 0 24-16 9-24 15-16-9-32-30-24-15-12-39-12-45 4z" fill="#fff" stroke="#000" stroke-miterlimit="10" pointer-events="none"/><switch transform="translate(604.5 84.5)"><foreignObject pointer-events="all" width="40" height="12" requiredFeatures="http://www.w3.org/TR/SVG11/feature#Extensibility" overflow="visible"><div xmlns="http://www.w3.org/1999/xhtml" style="line-height:1.2;vertical-align:top;width:42px;white-space:nowrap;overflow-wrap:normal;text-align:center" display="inline-block" font-size="12" font-family="Helvetica" color="#000"><div xmlns="http://www.w3.org/1999/xhtml" style="text-align:inherit;white-space:normal" display="inline-block" text-decoration="inherit">Internet</div></div></foreignObject><text x="20" y="12" text-anchor="middle" font-size="12" font-family="Helvetica">Internet</text></switch><switch transform="translate(98.5 28.5)"><foreignObject pointer-events="all" width="12" height="12" requiredFeatures="http://www.w3.org/TR/SVG11/feature#Extensibility" overflow="visible"><div xmlns="http://www.w3.org/1999/xhtml" style="line-height:1.2;vertical-align:top;width:13px;white-space:nowrap;overflow-wrap:normal;text-align:center" display="inline-block" font-size="12" font-family="Helvetica" color="#000"><div xmlns="http://www.w3.org/1999/xhtml" style="text-align:inherit;white-space:normal" display="inline-block" text-decoration="inherit">IR</div></div></foreignObject><text x="6" y="12" text-anchor="middle" font-size="12" font-family="Helvetica">IR</text></switch><switch transform="translate(510.5 78.5)"><foreignObject pointer-events="all" width="28" height="12" requiredFeatures="http://www.w3.org/TR/SVG11/feature#Extensibility" overflow="visible"><div xmlns="http://www.w3.org/1999/xhtml" style="line-height:1.2;vertical-align:top;width:28px;white-space:nowrap;overflow-wrap:normal;text-align:center" display="inline-block" font-size="12" font-family="Helvetica" color="#000"><div xmlns="http://www.w3.org/1999/xhtml" style="text-align:inherit;white-space:normal" display="inline-block" text-decoration="inherit">Wi-Fi</div></div></foreignObject><text x="14" y="12" text-anchor="middle" font-size="12" font-family="Helvetica">Wi-Fi</text></switch></svg>

<?xml version="1.0" encoding="UTF-8"?>
<!DOCTYPE svg PUBLIC "-//W3C//DTD SVG 1.1//EN" "http://www.w3.org/Graphics/SVG/1.1/DTD/svg11.dtd">
<svg xmlns="http://www.w3.org/2000/svg" xmlns:xlink="http://www.w3.org/1999/xlink" version="1.1" width="686px" height="176px" viewBox="-0.5 -0.5 686 176" content="&lt;mxfile host=&quot;www.draw.io&quot; modified=&quot;2019-10-06T15:44:49.591Z&quot; agent=&quot;Mozilla/5.0 (Windows NT 10.0; Win64; x64) AppleWebKit/537.36 (KHTML, like Gecko) Chrome/77.0.3865.90 Safari/537.36&quot; version=&quot;12.0.2&quot; etag=&quot;HpfP2azFizhoo8rrHVPE&quot; type=&quot;google&quot; pages=&quot;1&quot;&gt;&lt;diagram id=&quot;KG4S4hXutRLtGzeJw6J5&quot;&gt;3Zhdb5swFIZ/TS4TYT7ycdkm7TZpk6q2UttLD07Bm7GRMU2yX79jYkIMqZq1abPtKj6vbcDveXzAGQTzfPVJ0SL7JhPgA99LVoNgMfB9EnpT/DHKeqNMArIRUsUSO6gVbtgvsKJn1YolUDoDtZRcs8IVYykExNrRqFJy6Q57lNy9a0FT6Ak3MeV99Y4lOtuo08hr9c/A0qy5M/FsT06bwVYoM5rI5Y4UXAyCuZJSb1r5ag7cmNf4spl3+Uzv9sEUCH3IBH8z4Ynyyq7tjCkU5lIkTDPjn7JPqtfN8pWsRALmCt4gOF9mTMNNQWPTu8SEo5bpnGNEsKmkpuZCGA5nZry9IygNq2efmmy9QIhA5qDVGofYCcPQ2mf5IYGNl202yMRq2U4mxlajFoB0e+nWI2xYm/ZbFvT8gATpsKFUOpOpFJRftOq561g75quUhfXpB2i9tqjTSkvXRVgxfW+nm/aDaY8iGy1WO12LdRMIXNl9O9CED831TNBOq6Nm3mZ9ZlFOekpZqdhKod10VKWgHZIOSKICjkQ8uVd/S0bCHsRfrjG+VVSUOStLQx/uPZlUmIw3wXwEdknksjvdg66/B93pEdCNTokueQ26Q2/kkckuvd5oHL0AcB1dgWJoEJavg6ke96menY7qcY/qW8gLUFRXCsyTgyjlG4vzO/C8rbsfAfTk76nF/oFEExfml1g+ANtZH9vwdNhO/7ka443IuJOUV1WYEjOgz8znJQoxp/jiiRv5knF3z/1pRol3upTOepXompbFd1D17a7YyWtQMO7UoPDAGnSM78EmM7ufHwKpEJi63lbgHM8oBnn88C+g5kRWyYeYFE07JjVvmI8o1ITs/Ubr2IOL0+66S63kT5hLLs0uE1IY7x5xM3UkyllqjhgxiHpDnhurGJ7YzmxHzpKkrjX7jHZ5PcZL0et47fWBDPdY7R/D6v6Z7o4NL/u79L9xO/I7bkfv5jaG7eG87tv5iyO4+A0=&lt;/diagram&gt;&lt;/mxfile&gt;" style="background-color: rgb(255, 255, 255);"><defs/><g><rect x="-55" y="55" width="170" height="60" fill="#ffffff" stroke="#000000" transform="rotate(-90,30,85)" pointer-events="none"/><g transform="translate(-13.5,78.5)rotate(-90,43,6)"><switch><foreignObject style="overflow:visible;" pointer-events="all" width="86" height="12" requiredFeatures="http://www.w3.org/TR/SVG11/feature#Extensibility"><div xmlns="http://www.w3.org/1999/xhtml" style="display: inline-block; font-size: 12px; font-family: Helvetica; color: rgb(0, 0, 0); line-height: 1.2; vertical-align: top; width: 88px; white-space: nowrap; overflow-wrap: normal; text-align: center;"><div xmlns="http://www.w3.org/1999/xhtml" style="display:inline-block;text-align:inherit;text-decoration:inherit;white-space:normal;">Air Conditionner</div></div></foreignObject><text x="43" y="12" fill="#000000" text-anchor="middle" font-size="12px" font-family="Helvetica">Air Conditionner</text></switch></g><path d="M 135 45 L 98 45 L 98 85 L 66.37 85" fill="none" stroke="#000000" stroke-miterlimit="10" pointer-events="none"/><path d="M 61.12 85 L 68.12 81.5 L 66.37 85 L 68.12 88.5 Z" fill="#000000" stroke="#000000" stroke-miterlimit="10" pointer-events="none"/><rect x="135" y="5" width="120" height="80" fill="#ffffff" stroke="#000000" pointer-events="none"/><g transform="translate(136.5,31.5)"><switch><foreignObject style="overflow:visible;" pointer-events="all" width="116" height="26" requiredFeatures="http://www.w3.org/TR/SVG11/feature#Extensibility"><div xmlns="http://www.w3.org/1999/xhtml" style="display: inline-block; font-size: 12px; font-family: Helvetica; color: rgb(0, 0, 0); line-height: 1.2; vertical-align: top; width: 116px; white-space: nowrap; overflow-wrap: normal; text-align: center;"><div xmlns="http://www.w3.org/1999/xhtml" style="display:inline-block;text-align:inherit;text-decoration:inherit;white-space:normal;">IR Transmission module</div></div></foreignObject><text x="58" y="19" fill="#000000" text-anchor="middle" font-size="12px" font-family="Helvetica">IR Transmission module</text></switch></g><path d="M 255 135 L 300 135 L 300 104 L 336.63 104" fill="none" stroke="#000000" stroke-miterlimit="10" pointer-events="none"/><path d="M 341.88 104 L 334.88 107.5 L 336.63 104 L 334.88 100.5 Z" fill="#000000" stroke="#000000" stroke-miterlimit="10" pointer-events="none"/><rect x="135" y="95" width="120" height="80" fill="#ffffff" stroke="#000000" pointer-events="none"/><g transform="translate(141.5,128.5)"><switch><foreignObject style="overflow:visible;" pointer-events="all" width="106" height="12" requiredFeatures="http://www.w3.org/TR/SVG11/feature#Extensibility"><div xmlns="http://www.w3.org/1999/xhtml" style="display: inline-block; font-size: 12px; font-family: Helvetica; color: rgb(0, 0, 0); line-height: 1.2; vertical-align: top; width: 108px; white-space: nowrap; overflow-wrap: normal; text-align: center;"><div xmlns="http://www.w3.org/1999/xhtml" style="display:inline-block;text-align:inherit;text-decoration:inherit;white-space:normal;">Temperature sensor</div></div></foreignObject><text x="53" y="12" fill="#000000" text-anchor="middle" font-size="12px" font-family="Helvetica">Temperature sensor</text></switch></g><path d="M 345 80 L 300 80 L 300 45 L 261.37 45" fill="none" stroke="#000000" stroke-miterlimit="10" pointer-events="none"/><path d="M 256.12 45 L 263.12 41.5 L 261.37 45 L 263.12 48.5 Z" fill="#000000" stroke="#000000" stroke-miterlimit="10" pointer-events="none"/><path d="M 471.37 95 L 577.63 95" fill="none" stroke="#000000" stroke-miterlimit="10" pointer-events="none"/><path d="M 466.12 95 L 473.12 91.5 L 471.37 95 L 473.12 98.5 Z" fill="#000000" stroke="#000000" stroke-miterlimit="10" pointer-events="none"/><path d="M 582.88 95 L 575.88 98.5 L 577.63 95 L 575.88 91.5 Z" fill="#000000" stroke="#000000" stroke-miterlimit="10" pointer-events="none"/><rect x="345" y="65" width="120" height="60" fill="#ffffff" stroke="#000000" pointer-events="none"/><g transform="translate(369.5,88.5)"><switch><foreignObject style="overflow:visible;" pointer-events="all" width="70" height="12" requiredFeatures="http://www.w3.org/TR/SVG11/feature#Extensibility"><div xmlns="http://www.w3.org/1999/xhtml" style="display: inline-block; font-size: 12px; font-family: Helvetica; color: rgb(0, 0, 0); line-height: 1.2; vertical-align: top; width: 70px; white-space: nowrap; overflow-wrap: normal; text-align: center;"><div xmlns="http://www.w3.org/1999/xhtml" style="display:inline-block;text-align:inherit;text-decoration:inherit;white-space:normal;">Raspberry Pi</div></div></foreignObject><text x="35" y="12" fill="#000000" text-anchor="middle" font-size="12px" font-family="Helvetica">Raspberry Pi</text></switch></g><path d="M 595 71 C 571 71 565 91 584.2 95 C 565 103.8 586.6 123 602.2 115 C 613 131 649 131 661 115 C 685 115 685 99 670 91 C 685 75 661 59 640 67 C 625 55 601 55 595 71 Z" fill="#ffffff" stroke="#000000" stroke-miterlimit="10" pointer-events="none"/><g transform="translate(604.5,84.5)"><switch><foreignObject style="overflow:visible;" pointer-events="all" width="40" height="12" requiredFeatures="http://www.w3.org/TR/SVG11/feature#Extensibility"><div xmlns="http://www.w3.org/1999/xhtml" style="display: inline-block; font-size: 12px; font-family: Helvetica; color: rgb(0, 0, 0); line-height: 1.2; vertical-align: top; width: 42px; white-space: nowrap; overflow-wrap: normal; text-align: center;"><div xmlns="http://www.w3.org/1999/xhtml" style="display:inline-block;text-align:inherit;text-decoration:inherit;white-space:normal;">Internet</div></div></foreignObject><text x="20" y="12" fill="#000000" text-anchor="middle" font-size="12px" font-family="Helvetica">Internet</text></switch></g><g transform="translate(98.5,28.5)"><switch><foreignObject style="overflow:visible;" pointer-events="all" width="12" height="12" requiredFeatures="http://www.w3.org/TR/SVG11/feature#Extensibility"><div xmlns="http://www.w3.org/1999/xhtml" style="display: inline-block; font-size: 12px; font-family: Helvetica; color: rgb(0, 0, 0); line-height: 1.2; vertical-align: top; width: 13px; white-space: nowrap; overflow-wrap: normal; text-align: center;"><div xmlns="http://www.w3.org/1999/xhtml" style="display:inline-block;text-align:inherit;text-decoration:inherit;white-space:normal;">IR</div></div></foreignObject><text x="6" y="12" fill="#000000" text-anchor="middle" font-size="12px" font-family="Helvetica">IR</text></switch></g><g transform="translate(510.5,78.5)"><switch><foreignObject style="overflow:visible;" pointer-events="all" width="28" height="12" requiredFeatures="http://www.w3.org/TR/SVG11/feature#Extensibility"><div xmlns="http://www.w3.org/1999/xhtml" style="display: inline-block; font-size: 12px; font-family: Helvetica; color: rgb(0, 0, 0); line-height: 1.2; vertical-align: top; width: 28px; white-space: nowrap; overflow-wrap: normal; text-align: center;"><div xmlns="http://www.w3.org/1999/xhtml" style="display:inline-block;text-align:inherit;text-decoration:inherit;white-space:normal;">Wi-Fi</div></div></foreignObject><text x="14" y="12" fill="#000000" text-anchor="middle" font-size="12px" font-family="Helvetica">Wi-Fi</text></switch></g></g></svg>
